X: 1
T:Annie of Ballintyre
M:6/8
L:1/8
Q:80
C:By D. Macphedran
S:Quickstep
K:HP
|: e|
{g}A2{GdGe}A{g}A3/2B/2{d}c|
{Gdc}d3/2e/2{g}d{g}B3/2c/2{Gdc}d|
{gef}e3/2c/2{G}A{g}A3/2B/2{d}c|  !
{Gdc}d3/2e/2d{gBd}B3/2{g}A/2{d}G{g}A2{GdGe}A{g}A3/2B/2{d}c|
{Gdc}d3/2e/2{g}d{g}B3/2c/2d|
{g}e2{GdG}e{gde}d3/2c/2B|  !
{g}A2{GdGe}A{gef}e2:| |:
f|
{a}g3/2f/2g{a}e3/2f/2g|
a3/2f/2{g}d{g}d3/2e/2f|  !
{g}e3/2c/2{G}A{g}A3/2B/2{d}c|
{Gdc}d3/2e/2d{gBd}B3/2{g}A/2{d}G|1 {a}g3/2f/2g{a}e3/2f/2g|
a3/2f/2{g}d{gdG}d3/2e/2f|  !
{g}e3/2d/2c{g}d3/2{g}B/2{d}G|
{g}A2{GdGe}A{gef}e2:|2
{a}g3/2f/2{g}ea3/2g/2{a}f|  !
{g}e3/2f/2{g}d{g}B3/2c/2d|
{g}e2{GdG}e{gde}d3/2c/2B|
{g}A2{GdGe}A{gef}e2:|  !
